assets/img/icons/star-half.svg

<svg width="21" height="20" viewBox="0 0 21 20" fill="none" xmlns="http://www.w3.org/2000/svg">
<path d="M10.0779 16.3379C9.90539 16.3379 9.73259 16.3825 9.57794 16.4717L4.96759 19.1309C4.21789 19.5633 3.31048 18.9042 3.49005 18.0576L4.59454 12.8506C4.66839 12.5016 4.55001 12.1392 4.28497 11.9004L0.331848 8.33789C-0.311065 7.7585 0.0356175 6.69143 0.896301 6.60059L6.18927 6.04199C6.54418 6.00447 6.85256 5.78008 6.99786 5.4541L9.16486 0.592773C9.34113 0.197706 9.7094 -7.01163e-05 10.0779 0V16.3379Z" fill="#BA1A1A"/>
<path d="M10.0781 0C10.4466 0 10.815 0.197728 10.9912 0.592773L13.1582 5.4541C13.3035 5.78013 13.6118 6.00453 13.9668 6.04199L19.2598 6.60059C20.1204 6.69144 20.4671 7.7585 19.8242 8.33789L15.8701 11.9004C15.6051 12.1393 15.4877 12.5016 15.5615 12.8506L16.666 18.0576C16.8455 18.9042 15.9382 19.5632 15.1885 19.1309L10.5781 16.4717C10.4235 16.3825 10.2506 16.3379 10.0781 16.3379V0Z" fill="#C42C32" fill-opacity="0.2"/>
</svg>

<svg width="21" height="20" fill="none" xmlns="http://www.w3.org/2000/svg"><path d="M10.078 16.338a1 1 0 0 0-.5.134l-4.61 2.659c-.75.432-1.658-.227-1.478-1.073l1.105-5.207a1.001 1.001 0 0 0-.31-.95L.332 8.337C-.311 7.758.036 6.69.896 6.6l5.293-.559c.355-.038.664-.262.809-.588L9.165.593A.987.987 0 0 1 10.078 0v16.338Z" fill="#BA1A1A"/><path d="M10.078 0c.369 0 .737.198.913.593l2.167 4.861a1 1 0 0 0 .809.588l5.293.559c.86.09 1.207 1.157.564 1.737L15.87 11.9a1 1 0 0 0-.308.95l1.104 5.208c.18.846-.728 1.505-1.478 1.073l-4.61-2.66a1 1 0 0 0-.5-.133V0Z" fill="#C42C32" fill-opacity=".2"/></svg>
